X: 150102
T: FAIRYLAND WALTZ
C: by C. WARREN
R: Waltz.
%R: waltz
B: James Kerr "Merry Melodies" v.1 p.50 s.1 #2
Z: 2016 John Chambers <jc:trillian.mit.edu>
M: 3/4
L: 1/4
K: G
|:\
d2B | d2B | d>cc | c3 |\
a>aa | aba | g>gg | gfe |\
d2B | d2B | d>cc | c3 |\
a>aa | aba | g>gg |[1 g2z :|[2 g2 ||
|:ud |\
f>ed | c>BA | GBd | (e2d) |\
FAd | (e2d) | GBd | (e2d) |\
f>ed | cBA | GBd | (e2d) |\
FAd | e2f | g>gg |[1 "_D.C."g2 :|[2 g2z ||\
[K:=f]
K: C
|: "^TRIO."\
G>GG | e>ee | e2^c | d2e |\
f2A | B2d | c2A | G3 |\
G>GG | e>ee | e2^c | d2e |\
f2A | B2d | c>cc | "_D.C."c3 :|

%%sep 1 1 500
%%sep 1 1 500

